X:9078
T:La soyote
R:
O:Alsace - Elsass
A:Rgion de Donon
S:
B:La tradition Alsacienne.
Z:transcription (partition) : eric.forgeot@caramail.com
N:
M:2/4
L:1/8
Q:1/4=130
K:G
G/A/ | B2 z G/A/ | B2 z G/A/ | BB cB | A2 z F/G/ |
 A2 z F/G/ | A2 z F/G/ | dcBA |\
M:1/4
G2 ||\
M:2/4
BB BG/A/ | cB A2 | AA AG/A/ | BA G2 | BB BG/A/ | 
cB A2 | AA AG/A/ |\
M:3/4
BA G2 z2 ||
